_src/static/img/icon/burger.svg

<svg width="28" height="22" viewBox="0 0 28 22" fill="none" xmlns="http://www.w3.org/2000/svg">
<path d="M28 1.50093C28 0.672046 27.3448 0 26.525 0H5.89586C5.08138 0 4.42089 0.666342 4.42089 1.50093C4.42089 2.32982 5.07609 3.00187 5.89586 3.00187H26.525C27.3395 3.00187 28 2.33553 28 1.50093ZM28 10.5062C28 9.67733 27.3355 9.00529 26.534 9.00529H1.46595C0.656443 9.00529 -1.90735e-06 9.67163 -1.90735e-06 10.5062C-1.90735e-06 11.3351 0.664532 12.0072 1.46595 12.0072H26.534C27.3436 12.0072 28 11.3408 28 10.5062ZM28 19.5115C28 18.6826 27.337 18.0106 26.5163 18.0106H8.85236C8.03289 18.0106 7.36867 18.6769 7.36867 19.5115C7.36867 20.3404 8.03164 21.0124 8.85236 21.0124H26.5163C27.3358 21.0124 28 20.3461 28 19.5115Z" fill="#1B3ACD"/>
</svg>

<svg width="28" height="22" fill="none" xmlns="http://www.w3.org/2000/svg"><path d="M28 1.5c0-.828-.655-1.5-1.475-1.5H5.895c-.814 0-1.474.666-1.474 1.5 0 .83.655 1.502 1.475 1.502h20.629C27.34 3.002 28 2.336 28 1.5zm0 9.006c0-.829-.665-1.5-1.466-1.5H1.466c-.81 0-1.466.666-1.466 1.5 0 .83.665 1.501 1.466 1.501h25.068c.81 0 1.466-.666 1.466-1.5zm0 9.006c0-.83-.663-1.501-1.484-1.501H8.852c-.82 0-1.483.666-1.483 1.5 0 .83.663 1.501 1.483 1.501h17.664c.82 0 1.484-.666 1.484-1.5z" fill="#1B3ACD"/></svg>
